X:1
T:Implicit Trust, 76.76
T:Alfred George Wathall, 1905
T:Implicit Trust, 76.76
T:Public Domain
C:Alfred George Wathall, 1905
Z:Public Domain
%%score ( 1 2 ) ( 3 4 )
L:1/8
M:4/4
K:Db
V:1 treble 
V:2 treble 
V:3 bass 
V:4 bass 
V:1
 z2 | [DF]3 [DF] [CF]2 [DF]2 | (EF E2) [DF]3 [DF] | [DA]2 [DA]2 (CB,) [CB]2 | B2 A2 [DF]3 [EF] | %5
 [DF]3 [DF] [CF]2 [DF]2 | (EF E2) [Dd]2 [EB]2 | [FA]3 D ([CE][B,D]) [CE]2 | [DF]6 |] %9
V:2
 x2 | x8 | F4 x4 | x4 A2 x2 | D4 x4 | x8 | F4 x4 | x3 D x4 | x6 |] %9
V:3
 z2 | [B,,B,]3 [B,,B,] [B,,=A,]2 [B,,B,]2 | (CD C2) [B,,B,]3 [B,,B,] | %3
 [A,,F,]2 [A,,F,]2 (E,D,) [A,,E,]2 | G,2 F,2 [D,A,]3 [C,=A,] | %5
 [B,,B,]3 [B,,B,] [B,,=A,]2 [B,,B,]2 | (CD C2) B,2 [=G,D]2 | [A,D]3 [A,,F,] (G,F,) [A,,G,]2 | %8
 [D,A,]6 |] %9
V:4
 x2 | x8 | B,,4 x4 | x4 A,,2 x2 | D,4- x4 | x8 | B,,4 B,2 x2 | x4 A,,2 x2 | x6 |] %9

